X: 1182
T: İşte Seni Seven Benim
C: Sadettin Kaynak
O: Turkey
F: http://compmusic.upf.edu/node/140
N: muhayyer--turku--duyek--iste_seni--sadettin_kaynak
N: makam= muhayyer
N: form= turku
N: usul= duyek = 8/4
M: 8/4
L: 1/16
K: C _2/4B ^3/4f  
Q: 1/4=168
%%MIDI tuningsystem comma53
fg a2 z2 .a2 .a4 .a4  | a_1/4b ga fg ef d8  | \
w:  ARANAĞME  |   | 
ef g2 z2 .g2 .g4 .g4  | 
w:   | 
ga fg ef de c8  | Bc d2 z2 .d2 .d4 .d4  | \
w:   |   | 
de cd Bc AB G8  | 
w:   | 
AB cd cB BA A2 G2 c2 BA  | A8 de fg a4  | \
w:   |   | 
fg a2 z2 .a2 .a4 .a4  | 
w:  ARANAĞME  | 
a_1/4b ga fg ef d8  | ef g2 z2 .g2 .g4 .g4  | \
w:   |   | 
ga fg ef de c8  | 
w:   | 
Bc d2 z2 .d2 .d4 .d4  | de cd Bc AB G8  | \
w:   |   | 
AB cd cB BA A2 G2 c2 BA  | 
w:   | 
A12 de fg  | a4 f2 g2 a2 a6  | {_1/4b}a2 {b}g2 g2 f2 f2 {g}e4 d2  | \
w:   |  *  İş te  se ni   |  *  se *  *  ven  *  be *  nim    | 
d2 e6 e4 a4  | 
w:  Se nin  aş kın  | 
e2 e4 d2 dc cd cB BA  | a4 f2 g2 a2 a6  | \
w:  *  la  ö le *  *  *  nim    |  *  İş te  se ni   | 
{_1/4b}a2 {b}g2 g2 f2 f2 {g}e4 d2  | 
w:  *  se *  *  ven  *  be *  nim    | 
d2 e6 e4 a4  | e2 e2 d2 d2 dc cd cB BA  | \
w:  Se nin  aş kın  |  *  la  *  ö le *  *  *  nim    | 
A4 c2 d2 e2 e4 d2  | 
w:  *  Gü nah_ i se   | 
g2 {g}e4 d2 dc cB d4  | dc BA A2 B2 cB cd c2 BA  | 
w:  gö *  nül  *  ver *  *  *  mek    |  SAZ *  *  *  Gel  boy nu *  *  *  mu   | 
B2 e2 d2 d^c c_7/8B BA G4  | AB cd cB BA A2 G2 c2 BA  | 
w:  *  vur  *  kö *  le *  *  *  nim    |  Kıy *  ma  *  ba *  na  *  gü *  ze  | 
A6 e=f ed cd e4  | A4 c2 d2 e2 e4 d2  | \
w:  lim   SAZ  |  *  Gü nah_ i se   | 
g2 {g}e4 d2 dc cB d4  | 
w:  gö *  nül  *  ver *  *  *  mek    | 
dc BA A2 B2 cB cd c2 BA  | B2 e2 d2 d^c c_7/8B BA G4  | 
w:  SAZ *  *  *  Gel  boy nu *  *  *  mu   |  *  vur  *  kö *  le *  *  *  nim    | 
AB cd cB BA A2 G2 c2 BA  | A8 ed cB A4  | \
w:  Kıy *  ma  *  ba *  na  *  gü *  ze  |  lim    | 
fg a2 z2 .a2 .a4 .a4  | 
w:  ARANAĞME  | 
a_1/4b ga fg ef d8  | ef g2 z2 .g2 .g4 .g4  | \
w:   |   | 
ga fg ef de c8  | 
w:   | 
Bc d2 z2 .d2 .d4 .d4  | de cd Bc AB G8  | \
w:   |   | 
AB cd cB BA A2 G2 c2 BA  | 
w:   | 
A8 de fg a4  | fg a2 z2 .a2 .a4 .a4  | \
w:   |  ARANAĞME  | 
a_1/4b ga fg ef d8  | 
w:   | 
ef g2 z2 .g2 .g4 .g4  | ga fg ef de c8  | \
w:   |   | 
Bc d2 z2 .d2 .d4 .d4  | 
w:   | 
de cd Bc AB G8  | AB cd cB BA A2 G2 c2 BA  | 
w:   |   | 
A12 de fg  | a4 f2 g2 a2 a6  | {_1/4b}a2 {b}g2 g2 f2 f2 {g}e4 d2  | \
w:   |  *  İş te  se ni   |  *  se *  *  ven  *  be *  nim    | 
d2 e6 e4 a4  | 
w:  Se nin  aş kın  | 
e2 e4 d2 dc cd cB BA  | a4 f2 g2 a2 a6  | \
w:  *  la  ö le *  *  *  nim    |  *  İş te  se ni   | 
{_1/4b}a2 {b}g2 g2 f2 f2 {g}e4 d2  | 
w:  *  se *  *  ven  *  be *  nim    | 
d2 e6 e4 a4  | e2 e2 d2 d2 dc cd cB BA  | \
w:  Se nin  aş kın  |  *  la  *  ö le *  *  *  nim    | 
A4 c2 d2 e2 e4 d2  | 
w:  *  Gü nah_ i se   | 
g2 {g}e4 d2 dc cB d4  | dc BA A2 B2 cB cd c2 BA  | 
w:  gö *  nül  *  ver *  *  *  mek    |  SAZ *  *  *  Gel  boy nu *  *  *  mu   | 
B2 e2 d2 d^c c_7/8B BA G4  | AB cd cB BA A2 G2 c2 BA  | 
w:  *  vur  *  kö *  le *  *  *  nim    |  Kıy *  ma  *  ba *  na  *  gü *  ze  | 
A6 e=f ed cd e4  | A4 c2 d2 e2 e4 d2  | \
w:  lim   SAZ  |  *  Gü nah_ i se   | 
g2 {g}e4 d2 dc cB d4  | 
w:  gö *  nül  *  ver *  *  *  mek    | 
dc BA A2 B2 cB cd c2 BA  | B2 e2 d2 d^c c_7/8B BA G4  | 
w:  SAZ *  *  *  Gel  boy nu *  *  *  mu   |  *  vur  *  kö *  le *  *  *  nim    | 
AB cd cB BA A2 G2 c2 BA  | A8 ed cB A4  | |


